webapp/src/assets/icons/cloudproviders/aws/architecture_services/cloudtrail.svg

<?xml version="1.0" encoding="UTF-8"?>
<svg width="24px" height="24px" viewBox="0 0 24 24" version="1.1" xmlns="http://www.w3.org/2000/svg" xmlns:xlink="http://www.w3.org/1999/xlink">
    <title>Icon-Architecture/16/Arch_AWS-CloudTrail_16</title>
    <g id="Icon-Architecture/16/Arch_AWS-CloudTrail_16" stroke="none" stroke-width="1" fill="none" fill-rule="evenodd">
        <path d="M9.00031252,15.0235082 L11.0004375,15.0235082 L11.0004375,14.0621796 L9.00031252,14.0621796 L9.00031252,15.0235082 Z M18.0418776,11.1926134 C17.9148697,10.0995827 17.2538284,9.5016363 16.6327895,9.30264126 C16.176761,9.15555797 15.7027314,9.19497245 15.2887055,9.39396749 C15.1246953,8.95367895 14.8546784,8.45667202 14.3466467,7.98946629 C13.2565785,6.98872313 10.8734296,6.69167257 9.24232765,7.35498936 C7.96424777,7.8760295 6.58616164,9.31609986 6.50415651,10.7802034 C5.64010251,11.0647567 5.0000625,12.033776 5.0000625,12.7009381 L6.00012501,12.7009381 C6.00012501,12.4183075 6.48615538,11.6598192 7.00018751,11.6598192 C7.27620476,11.6598192 7.50021876,11.4454429 7.50021876,11.1791548 L7.50021876,10.9176734 C7.50021876,9.97172602 8.51728233,8.69508154 9.63335208,8.24037307 C10.8934308,7.72606223 12.848553,7.94236118 13.6546034,8.68450692 C14.2596412,9.2401549 14.4066504,9.84963728 14.5246578,10.3379923 C14.5686605,10.5196834 14.71967,10.6609987 14.9086818,10.6994518 C15.0986937,10.7398276 15.2947059,10.667728 15.4117132,10.518722 C15.6417276,10.2255168 15.9867492,10.109196 16.3147697,10.2139809 C16.6767923,10.3303016 17.0638165,10.7494409 17.0638165,11.5790676 C17.0638165,11.8145931 17.2398275,12.0145495 17.4808426,12.0530026 C18.5029064,12.2164285 18.9999375,12.8835906 18.9999375,14.0939034 C18.9999375,15.8771681 17.6188512,16.0280967 17.4948434,16.0386713 L11.0064379,16.0386713 L11.0064379,17 L16.2187637,17 L17.5238452,16.9990387 C18.3808988,16.9509722 20,16.2818875 20,14.0939034 C20,12.1366382 18.9069317,11.4387136 18.0418776,11.1926134 L18.0418776,11.1926134 Z M8.00025002,17 L10.000375,17 L10.000375,16.0386713 L8.00025002,16.0386713 L8.00025002,17 Z M5.0000625,17 L7.00018751,17 L7.00018751,16.0386713 L5.0000625,16.0386713 L5.0000625,17 Z M4,15.0235082 L7.00018751,15.0235082 L7.00018751,14.0621796 L4,14.0621796 L4,15.0235082 Z" id="AWS-CloudTrail_Icon_16_Squid" fill="#E7157B"></path>
    </g>
</svg>

<svg width="24" height="24" xmlns="http://www.w3.org/2000/svg"><path d="M9 15.024h2v-.962H9v.962Zm9.042-3.831c-.127-1.093-.788-1.691-1.41-1.89a1.803 1.803 0 0 0-1.343.091 3.542 3.542 0 0 0-.942-1.405c-1.09-1-3.474-1.297-5.105-.634-1.278.521-2.656 1.961-2.738 3.425C5.64 11.065 5 12.034 5 12.7h1c0-.282.486-1.04 1-1.04a.49.49 0 0 0 .5-.48v-.262c0-.946 1.017-2.223 2.133-2.678 1.26-.514 3.216-.298 4.022.445.605.555.752 1.165.87 1.653a.493.493 0 0 0 .384.361c.19.04.386-.031.503-.18.23-.293.575-.41.903-.305.362.116.749.535.749 1.365 0 .236.176.436.417.474 1.022.163 1.519.83 1.519 2.04 0 1.784-1.381 1.935-1.505 1.946h-6.489V17h5.213l1.305-.001c.857-.048 2.476-.717 2.476-2.905 0-1.957-1.093-2.655-1.958-2.901ZM8 17h2v-.961H8V17Zm-3 0h2v-.961H5V17Zm-1-1.976h3v-.962H4v.962Z" fill="#E7157B" fill-rule="evenodd"/></svg>
